**harm	**harte	**silbe	**rhyme	**timestamp	**phrase	**leadinstrument	**kern
*M7/4	*M7/4	*	*	*	*	*	*
*	*	*	*	*	*	*	*
*	*	*	*	*	*	*	*
*b:	*b:	*	*	*b:	*b:	*b:	*b:
*	*	*	*	*	*	*	*
*	*	*	*	*	*	*	*
1r;	N	.	.	.	.	r	1r;
1r;	N	.	.	.	.	r	1r;
=1	=1	=1	=1	=1	=1	=1	=1
*>Letter>A	*>Letter>A	*>Letter>A	*>Letter>A	*>Letter>A	*>Letter>A	*>Letter>A	*>Letter>A
*>Label>Intro	*>Label>Intro	*>Label>Intro	*>Label>Intro	*>Label>Intro	*>Label>Intro	*>Label>Intro	*>Label>Intro
1..i	B:min	.	.	26.955	newline	r	1..B 1..dd 1..ff#
=2	=2	=2	=2	=2	=2	=2	=2
1..i	B:min	.	.	.	.	r	1..B 1..dd 1..ff#
=3	=3	=3	=3	=3	=3	=3	=3
1..i	B:min	.	.	.	.	r	1..B 1..dd 1..ff#
=4	=4	=4	=4	=4	=4	=4	=4
1..i	B:min	.	.	.	.	r	1..B 1..dd 1..ff#
=5	=5	=5	=5	=5	=5	=5	=5
*>Letter>B	*>Letter>B	*>Letter>B	*>Letter>B	*>Letter>B	*>Letter>B	*>Letter>B	*>Letter>B
*>Label>Verse	*>Label>Verse	*>Label>Verse	*>Label>Verse	*>Label>Verse	*>Label>Verse	*>Label>Verse	*>Label>Verse
1..i	B:min	Mo-	.	41.01	newline	voice	1..B 1..dd 1..ff#
.	.	-ney,	a	.	.	.	.
.	.	.	.	.	.	.	.
.	.	.	.	.	.	.	.
.	.	a	.	.	.	.	.
.	.	get-	.	.	.	.	.
.	.	-a-	.	.	.	.	.
=6	=6	=6	=6	=6	=6	=6	=6
1..i	B:min	-way.	B	.	.	voice	1..B 1..dd 1..ff#
.	.	.	.	.	.	.	.
.	.	.	.	.	.	.	.
.	.	Go	.	.	.	.	.
.	.	get	.	.	.	.	.
.	.	a	.	.	.	.	.
=7	=7	=7	=7	=7	=7	=7	=7
1..i	B:min	good	.	.	.	voice	1..B 1..dd 1..ff#
.	.	job	.	.	.	.	.
.	.	with	.	.	.	.	.
.	.	more	.	.	.	.	.
.	.	pay	B	.	.	.	.
.	.	and	.	.	.	.	.
.	.	you're	.	.	.	.	.
.	.	o	.	.	.	.	.
=8	=8	=8	=8	=8	=8	=8	=8
1..i	B:min	_	.	.	.	voice	1..B 1..dd 1..ff#
.	.	_	.	.	.	.	.
.	.	kay.	B	.	.	.	.
.	.	.	.	.	.	.	.
.	.	.	.	.	.	.	.
.	.	Mo-	.	.	.	.	.
=9	=9	=9	=9	=9	=9	=9	=9
1..i	B:min	_	.	55.015	newline	voice	1..B 1..dd 1..ff#
.	.	-ney,	a	.	.	.	.
.	.	_	.	.	.	.	.
.	.	_	.	.	.	.	.
.	.	_	.	.	.	.	.
.	.	.	.	.	.	.	.
.	.	it's	.	.	.	.	.
.	.	a	.	.	.	.	.
=10	=10	=10	=10	=10	=10	=10	=10
1..i	B:min	gas.	C	.	.	voice	1..B 1..dd 1..ff#
.	.	.	.	.	.	.	.
.	.	.	.	.	.	.	.
.	.	Grab	C	.	.	.	.
=11	=11	=11	=11	=11	=11	=11	=11
1..i	B:min	that	.	.	.	voice	1..B 1..dd 1..ff#
.	.	cash	C	.	.	.	.
.	.	with	.	.	.	.	.
.	.	both	.	.	.	.	.
.	.	hands	.	.	.	.	.
.	.	and	.	.	.	.	.
.	.	make	.	.	.	.	.
=12	=12	=12	=12	=12	=12	=12	=12
1..i	B:min	_	.	.	.	voice	1..B 1..dd 1..ff#
.	.	_	.	.	.	.	.
.	.	a	.	.	.	.	.
.	.	stash.	C	.	.	.	.
.	.	.	.	.	.	.	.
.	.	.	.	.	.	.	.
.	.	A	.	.	.	.	.
=13	=13	=13	=13	=13	=13	=13	=13
*M4/4	*M4/4	*	*	*M4/4	*M4/4	*M4/4	*
1v	F#:min	New	.	68.595	newline	voice	1F# 1a 1cc#
.	.	car,	D	.	.	.	.
.	.	ca-	.	.	.	.	.
.	.	-vi-	.	.	.	.	.
.	.	-ar,	D	.	.	.	.
=14	=14	=14	=14	=14	=14	=14	=14
1v	F#:min	four-	.	.	.	voice	1F# 1a 1cc#
.	.	-star	D	.	.	.	.
.	.	day-	.	.	.	.	.
.	.	-dream,	A	.	.	.	.
=15	=15	=15	=15	=15	=15	=15	=15
*M6/4	*M6/4	*	*	*M6/4	*M6/4	*M6/4	*
1.iv	E:min	think	.	.	.	voice	1.E 1.g 1.b
.	.	I'll	.	.	.	.	.
.	.	buy	.	.	.	.	.
.	.	me	A	.	.	.	.
.	.	a	.	.	.	.	.
.	.	foot-	.	.	.	.	.
.	.	-ball	.	.	.	.	.
=16	=16	=16	=16	=16	=16	=16	=16
*M7/4	*M7/4	*	*	*M7/4	*M7/4	*M7/4	*
1..i	B:min	_	.	.	.	voice	1..B 1..dd 1..ff#
.	.	_	.	.	.	.	.
.	.	_	.	.	.	.	.
.	.	_	.	.	.	.	.
.	.	team.	A	.	.	.	.
.	.	.	.	.	.	.	.
.	.	.	.	.	.	.	.
=17	=17	=17	=17	=17	=17	=17	=17
1..i	B:min	.	.	.	.	r	1..B 1..dd 1..ff#
=18	=18	=18	=18	=18	=18	=18	=18
*>Letter>B	*>Letter>B	*>Letter>B	*>Letter>B	*>Letter>B	*>Letter>B	*>Letter>B	*>Letter>B
*>Label>Verse	*>Label>Verse	*>Label>Verse	*>Label>Verse	*>Label>Verse	*>Label>Verse	*>Label>Verse	*>Label>Verse
1..i	B:min	Mo-	.	82.15	newline	voice	1..B 1..dd 1..ff#
.	.	-ney,	A	.	.	.	.
.	.	.	.	.	.	.	.
.	.	.	.	.	.	.	.
.	.	we'll	.	.	.	.	.
.	.	get	.	.	.	.	.
=19	=19	=19	=19	=19	=19	=19	=19
1..i	B:min	back.	C	.	.	voice	1..B 1..dd 1..ff#
.	.	.	.	.	.	.	.
.	.	.	.	.	.	.	.
.	.	I'm	.	.	.	.	.
=20	=20	=20	=20	=20	=20	=20	=20
1..i	B:min	all	.	.	.	voice	1..B 1..dd 1..ff#
.	.	right,	.	.	.	.	.
.	.	Jack,	C	.	.	.	.
.	.	keep	.	.	.	.	.
.	.	your	.	.	.	.	.
.	.	hands	.	.	.	.	.
.	.	off	.	.	.	.	.
.	.	my	.	.	.	.	.
=21	=21	=21	=21	=21	=21	=21	=21
1..i	B:min	_	.	.	.	voice	1..B 1..dd 1..ff#
.	.	_	.	.	.	.	.
.	.	stack.	C	.	.	.	.
.	.	.	.	.	.	.	.
.	.	.	.	.	.	.	.
=22	=22	=22	=22	=22	=22	=22	=22
1..i	B:min	Mo-	.	95.66	newline	voice	1..B 1..dd 1..ff#
.	.	-ney,	A	.	.	.	.
.	.	_	.	.	.	.	.
.	.	_	.	.	.	.	.
.	.	_	.	.	.	.	.
.	.	.	.	.	.	.	.
.	.	.	.	.	.	.	.
.	.	it's	.	.	.	.	.
.	.	a	.	.	.	.	.
=23	=23	=23	=23	=23	=23	=23	=23
1..i	B:min	hit.	E	.	.	voice	1..B 1..dd 1..ff#
.	.	.	.	.	.	.	.
.	.	.	.	.	.	.	.
.	.	A'	.	.	.	.	.
.	.	don't	.	.	.	.	.
=24	=24	=24	=24	=24	=24	=24	=24
1..i	B:min	give	E	.	.	voice	1..B 1..dd 1..ff#
.	.	me	A	.	.	.	.
.	.	that	.	.	.	.	.
.	.	do-	.	.	.	.	.
.	.	-goo-	(F	.	.	.	.
.	.	-dy-	a)	.	.	.	.
.	.	-good	F	.	.	.	.
.	.	bull-	F	.	.	.	.
=25	=25	=25	=25	=25	=25	=25	=25
1..i	B:min	_	.	.	.	voice	1..B 1..dd 1..ff#
.	.	_	.	.	.	.	.
.	.	-shit.	E	.	.	.	.
.	.	_	.	.	.	.	.
.	.	.	.	.	.	.	.
.	.	I'm	.	.	.	.	.
.	.	in	.	.	.	.	.
.	.	the	.	.	.	.	.
=26	=26	=26	=26	=26	=26	=26	=26
*M4/4	*M4/4	*	*	*M4/4	*M4/4	*M4/4	*
1v	F#:min	hi-	F	109.075	newline	voice	1F# 1a 1cc#
.	.	-fi-	f	.	.	.	.
.	.	-de-	.	.	.	.	.
.	.	-li-	.	.	.	.	.
.	.	-ty	A	.	.	.	.
=27	=27	=27	=27	=27	=27	=27	=27
1v	F#:min	first	.	.	.	voice	1F# 1a 1cc#
.	.	class	.	.	.	.	.
.	.	tra-	.	.	.	.	.
.	.	-vel-	.	.	.	.	.
.	.	-ing	A	.	.	.	.
=28	=28	=28	=28	=28	=28	=28	=28
*M6/4	*M6/4	*	*	*M6/4	*M6/4	*M6/4	*
1.iv	E:min	set	G	.	.	voice	1.E 1.g 1.b
.	.	and	.	.	.	.	.
.	.	I	.	.	.	.	.
.	.	think	A	.	.	.	.
.	.	I	.	.	.	.	.
.	.	need	A	.	.	.	.
.	.	a	.	.	.	.	.
.	.	Lear	A	.	.	.	.
=29	=29	=29	=29	=29	=29	=29	=29
*M7/4	*M7/4	*	*	*M7/4	*M7/4	*M7/4	*
1..i	B:min	_	.	.	.	voice	1..B 1..dd 1..ff#
.	.	_	.	.	.	.	.
.	.	_	.	.	.	.	.
.	.	_	.	.	.	.	.
.	.	jet.	G	.	.	.	.
.	.	.	.	.	.	.	.
.	.	.	.	.	.	.	.
=30	=30	=30	=30	=30	=30	=30	=30
1..i	B:min	.	.	.	.	r	1..B 1..dd 1..ff#
=31	=31	=31	=31	=31	=31	=31	=31
*>Letter>C	*>Letter>C	*>Letter>C	*>Letter>C	*>Letter>C	*>Letter>C	*>Letter>C	*>Letter>C
*>Label>Solo	*>Label>Solo	*>Label>Solo	*>Label>Solo	*>Label>Solo	*>Label>Solo	*>Label>Solo	*>Label>Solo
1..i	B:min	.	.	122.32	newline	saxophone	1..B 1..dd 1..ff#
=32	=32	=32	=32	=32	=32	=32	=32
1..i	B:min	.	.	.	.	saxophone	1..B 1..dd 1..ff#
=33	=33	=33	=33	=33	=33	=33	=33
1..i	B:min	.	.	.	.	saxophone	1..B 1..dd 1..ff#
=34	=34	=34	=34	=34	=34	=34	=34
*M4/4	*M4/4	*	*	*M4/4	*M4/4	*M4/4	*
1i	B:min	.	.	.	.	saxophone	1B 1dd 1ff#
=35	=35	=35	=35	=35	=35	=35	=35
1i	B:min	.	.	135.83	newline	saxophone	1B 1dd 1ff#
=36	=36	=36	=36	=36	=36	=36	=36
*M7/4	*M7/4	*	*	*M7/4	*M7/4	*M7/4	*
1..i	B:min	.	.	.	.	saxophone	1..B 1..dd 1..ff#
=37	=37	=37	=37	=37	=37	=37	=37
1..i	B:min	.	.	.	.	saxophone	1..B 1..dd 1..ff#
=38	=38	=38	=38	=38	=38	=38	=38
1..i	B:min	.	.	.	.	saxophone	1..B 1..dd 1..ff#
=39	=39	=39	=39	=39	=39	=39	=39
1..i	B:min	.	.	.	.	saxophone	1..B 1..dd 1..ff#
=40	=40	=40	=40	=40	=40	=40	=40
*M4/4	*M4/4	*	*	*M4/4	*M4/4	*M4/4	*
1v	F#:min	.	.	162.47	newline	saxophone	1F# 1a 1cc#
=41	=41	=41	=41	=41	=41	=41	=41
1v	F#:min	.	.	.	.	saxophone	1F# 1a 1cc#
=42	=42	=42	=42	=42	=42	=42	=42
*M6/4	*M6/4	*	*	*M6/4	*M6/4	*M6/4	*
1.iv	E:min	.	.	.	.	saxophone	1.E 1.g 1.b
=43	=43	=43	=43	=43	=43	=43	=43
*M4/4	*M4/4	*	*	*M4/4	*M4/4	*M4/4	*
1i	B:min	.	.	.	.	saxophone	1B 1dd 1ff#
=44	=44	=44	=44	=44	=44	=44	=44
1i	B:min	.	.	.	.	saxophone	1B 1dd 1ff#
=45	=45	=45	=45	=45	=45	=45	=45
*>Letter>C	*>Letter>C	*>Letter>C	*>Letter>C	*>Letter>C	*>Letter>C	*>Letter>C	*>Letter>C
*>Label>Solo	*>Label>Solo	*>Label>Solo	*>Label>Solo	*>Label>Solo	*>Label>Solo	*>Label>Solo	*>Label>Solo
1i	B:min	.	.	186.16	newline	guitar	1B 1dd 1ff#
=46	=46	=46	=46	=46	=46	=46	=46
1i	B:min	.	.	.	.	guitar	1B 1dd 1ff#
=47	=47	=47	=47	=47	=47	=47	=47
1i	B:min	.	.	.	.	guitar	1B 1dd 1ff#
=48	=48	=48	=48	=48	=48	=48	=48
1i	B:min	.	.	.	.	guitar	1B 1dd 1ff#
=49	=49	=49	=49	=49	=49	=49	=49
1i	B:min	.	.	193.465	newline	guitar	1B 1dd 1ff#
=50	=50	=50	=50	=50	=50	=50	=50
1i	B:min	.	.	.	.	guitar	1B 1dd 1ff#
=51	=51	=51	=51	=51	=51	=51	=51
1i	B:min	.	.	.	.	guitar	1B 1dd 1ff#
=52	=52	=52	=52	=52	=52	=52	=52
1i	B:min	.	.	.	.	guitar	1B 1dd 1ff#
=53	=53	=53	=53	=53	=53	=53	=53
1iv	E:min	.	.	200.565	newline	guitar	1E 1g 1b
=54	=54	=54	=54	=54	=54	=54	=54
1iv	E:min	.	.	.	.	guitar	1E 1g 1b
=55	=55	=55	=55	=55	=55	=55	=55
1iv	E:min	.	.	.	.	guitar	1E 1g 1b
=56	=56	=56	=56	=56	=56	=56	=56
1iv	E:min	.	.	.	.	guitar	1E 1g 1b
=57	=57	=57	=57	=57	=57	=57	=57
1i	B:min	.	.	207.67	newline	guitar	1B 1dd 1ff#
=58	=58	=58	=58	=58	=58	=58	=58
1i	B:min	.	.	.	.	guitar	1B 1dd 1ff#
=59	=59	=59	=59	=59	=59	=59	=59
1i	B:min	.	.	.	.	guitar	1B 1dd 1ff#
=60	=60	=60	=60	=60	=60	=60	=60
1i	B:min	.	.	.	.	guitar	1B 1dd 1ff#
=61	=61	=61	=61	=61	=61	=61	=61
1v	F#:min	.	.	214.775	newline	guitar	1F# 1a 1cc#
=62	=62	=62	=62	=62	=62	=62	=62
1v	F#:min	.	.	.	.	guitar	1F# 1a 1cc#
=63	=63	=63	=63	=63	=63	=63	=63
1i	B:1	.	.	.	.	guitar	1B 1dd 1ff#
.	A:1	.	.	.	.	guitar	.
.	G:1	.	.	.	.	guitar	.
.	F#:1	.	.	.	.	guitar	.
=64	=64	=64	=64	=64	=64	=64	=64
1i	E:1	.	.	.	.	guitar	1B 1dd 1ff#
.	D:1	.	.	.	.	guitar	.
.	C#:1	.	.	.	.	guitar	.
.	C:1	.	.	.	.	guitar	.
=65	=65	=65	=65	=65	=65	=65	=65
*M7/4	*M7/4	*	*	*M7/4	*M7/4	*M7/4	*
1..i	B:min	.	.	221.855	newline	guitar	1..B 1..dd 1..ff#
=66	=66	=66	=66	=66	=66	=66	=66
1..i	B:min	.	.	.	.	guitar	1..B 1..dd 1..ff#
=67	=67	=67	=67	=67	=67	=67	=67
*>Letter>B	*>Letter>B	*>Letter>B	*>Letter>B	*>Letter>B	*>Letter>B	*>Letter>B	*>Letter>B
*>Label>Verse	*>Label>Verse	*>Label>Verse	*>Label>Verse	*>Label>Verse	*>Label>Verse	*>Label>Verse	*>Label>Verse
1..i	B:min	Mo-	.	311.885	newline	voice	1..B 1..dd 1..ff#
.	.	-ney,	a	.	.	.	.
.	.	_	.	.	.	.	.
.	.	_	.	.	.	.	.
.	.	.	.	.	.	.	.
.	.	.	.	.	.	.	.
.	.	.	.	.	.	.	.
.	.	it's	.	.	.	.	.
.	.	a	.	.	.	.	.
=68	=68	=68	=68	=68	=68	=68	=68
1..i	B:min	crime.	F	.	.	voice	1..B 1..dd 1..ff#
.	.	.	.	.	.	.	.
.	.	.	.	.	.	.	.
.	.	Share	H	.	.	.	.
=69	=69	=69	=69	=69	=69	=69	=69
1..i	B:min	it,	.	.	.	voice	1..B 1..dd 1..ff#
.	.	fair-	(H	.	.	.	.
.	.	-ly	a)	.	.	.	.
.	.	but	.	.	.	.	.
.	.	don't	.	.	.	.	.
.	.	take	.	.	.	.	.
.	.	a	.	.	.	.	.
.	.	slice	F	.	.	.	.
.	.	of	.	.	.	.	.
.	.	my	F	.	.	.	.
=70	=70	=70	=70	=70	=70	=70	=70
1..i	B:min	_	.	.	.	voice	1..B 1..dd 1..ff#
.	.	_	.	.	.	.	.
.	.	pie.	F	.	.	.	.
.	.	.	.	.	.	.	.
.	.	.	.	.	.	.	.
=71	=71	=71	=71	=71	=71	=71	=71
1..i	B:min	Mo-	.	324.945	newline	voice	1..B 1..dd 1..ff#
.	.	-ney,	a	.	.	.	.
.	.	_	.	.	.	.	.
.	.	_	.	.	.	.	.
.	.	.	.	.	.	.	.
.	.	.	.	.	.	.	.
.	.	.	.	.	.	.	.
.	.	so	.	.	.	.	.
.	.	they	B	.	.	.	.
.	.	_	.	.	.	.	.
=72	=72	=72	=72	=72	=72	=72	=72
1..i	B:min	say,	B	.	.	voice	1..B 1..dd 1..ff#
.	.	.	.	.	.	.	.
.	.	.	.	.	.	.	.
.	.	is	.	.	.	.	.
=73	=73	=73	=73	=73	=73	=73	=73
1..i	B:min	the	.	.	.	voice	1..B 1..dd 1..ff#
.	.	root	.	.	.	.	.
.	.	of	.	.	.	.	.
.	.	all	.	.	.	.	.
.	.	e-	.	.	.	.	.
.	.	-vil	.	.	.	.	.
.	.	to	.	.	.	.	.
=74	=74	=74	=74	=74	=74	=74	=74
1..i	B:min	_	.	.	.	voice	1..B 1..dd 1..ff#
.	.	_	.	.	.	.	.
.	.	day.	B	.	.	.	.
.	.	.	.	.	.	.	.
.	.	.	.	.	.	.	.
=75	=75	=75	=75	=75	=75	=75	=75
*M4/4	*M4/4	*	*	*M4/4	*M4/4	*M4/4	*
1v	F#:min	But	.	338	newline	voice	1F# 1a 1cc#
.	.	if	.	.	.	.	.
.	.	you	.	.	.	.	.
.	.	ask	.	.	.	.	.
.	.	for	.	.	.	.	.
.	.	a	.	.	.	.	.
=76	=76	=76	=76	=76	=76	=76	=76
1v	F#:min	raise	F	.	.	voice	1F# 1a 1cc#
.	.	it's	.	.	.	.	.
.	.	no	.	.	.	.	.
.	.	sur-	.	.	.	.	.
=77	=77	=77	=77	=77	=77	=77	=77
*M6/4	*M6/4	*	*	*M6/4	*M6/4	*M6/4	*
1.iv	E:min	-prise	F	.	.	voice	1.E 1.g 1.b
.	.	that	.	.	.	.	.
.	.	they're	.	.	.	.	.
.	.	gi-	.	.	.	.	.
.	.	-ving	.	.	.	.	.
.	.	.	.	.	.	.	.
.	.	none	.	.	.	.	.
.	.	a-	.	.	.	.	.
.	.	-way	B	.	.	.	.
=78	=78	=78	=78	=78	=78	=78	=78
*>Letter>D	*>Letter>D	*>Letter>D	*>Letter>D	*>Letter>D	*>Letter>D	*>Letter>D	*>Letter>D
*>Label>Outro	*>Label>Outro	*>Label>Outro	*>Label>Outro	*>Label>Outro	*>Label>Outro	*>Label>Outro	*>Label>Outro
*M4/4	*M4/4	*	*	*M4/4	*M4/4	*M4/4	*
1i	B:min	.	.	344.59	newline	voice	1B 1dd 1ff#
.	.	.	.	.	.	.	.
.	.	.	.	.	.	.	.
.	.	a-	.	.	.	.	.
.	.	-way	B	.	.	.	.
=79	=79	=79	=79	=79	=79	=79	=79
1i	B:min	.	.	.	.	voice	1B 1dd 1ff#
.	.	.	.	.	.	.	.
.	.	.	.	.	.	.	.
.	.	a-	.	.	.	.	.
.	.	-way	B	.	.	.	.
=80	=80	=80	=80	=80	=80	=80	=80
1i	B:min	_	.	.	.	voice	1B 1dd 1ff#
.	.	_	.	.	.	.	.
.	.	_	.	.	.	.	.
.	.	.	.	.	.	.	.
.	.	.	.	.	.	.	.
.	.	a-	.	.	.	.	.
.	.	-way	B	.	.	.	.
=81	=81	=81	=81	=81	=81	=81	=81
1i	B:min	_	.	.	.	voice	1B 1dd 1ff#
.	.	_	.	.	.	.	.
.	.	_	.	.	.	.	.
.	.	.	.	.	.	.	.
.	.	.	.	.	.	.	.
.	.	a-	.	.	.	.	.
.	.	-way	B	.	.	.	.
=82	=82	=82	=82	=82	=82	=82	=82
1i	B:min	_	.	351.995	newline	fadeout voice	1B 1dd 1ff#
.	.	_	.	.	.	.	.
.	.	_	.	.	.	.	.
.	.	.	.	.	.	.	.
.	.	.	.	.	.	.	.
.	.	.	.	.	.	.	.
.	.	a-	.	.	.	.	.
.	.	-way	B	.	.	.	.
=83	=83	=83	=83	=83	=83	=83	=83
1i	B:min	.	.	.	.	fadeout voice	1B 1dd 1ff#
.	.	.	.	.	.	.	.
.	.	.	.	.	.	.	.
.	.	a-	.	.	.	.	.
.	.	-way	B	.	.	.	.
=84	=84	=84	=84	=84	=84	=84	=84
1i	B:min	_	.	.	.	fadeout voice	1B 1dd 1ff#
.	.	_	.	.	.	.	.
.	.	_	.	.	.	.	.
.	.	.	.	.	.	.	.
.	.	.	.	.	.	.	.
.	.	.	.	.	.	.	.
.	.	a-	.	.	.	.	.
=85	=85	=85	=85	=85	=85	=85	=85
1i	B:min	-way	B	.	.	fadeout voice	1B 1dd 1ff#
.	.	.	.	.	.	.	.
.	.	.	.	.	.	.	.
.	.	.	.	.	.	.	.
.	.	oo-	.	.	.	.	.
=86	=86	=86	=86	=86	=86	=86	=86
1i	B:min	_	.	.	.	fadeout voice	1B 1dd 1ff#
.	.	-o-	.	.	.	.	.
.	.	-o-	.	.	.	.	.
.	.	-o-	.	.	.	.	.
.	.	-ooh...	.	.	.	.	.
.	.	.	.	.	.	.	.
=87	=87	=87	=87	=87	=87	=87	=87
1i	B:min	.	.	.	.	fadeout voice	1B 1dd 1ff#
=88	=88	=88	=88	=88	=88	=88	=88
1i	B:min	.	.	.	.	fadeout voice	1B 1dd 1ff#
1r;	N	.	.	.	.	r	1r;
*-	*-	*-	*-	*-	*-	*-	*-
!!!BillboardChartDate: 1973/07/28
!!!BillboardPeak: 13
!!!BillboardWeeksOnChart: 15
!!!COC: Pink Floyd
!!!ENC: Nathaniel Condit-Schultz
!!!EST: Awating manual error checking and editing.
!!!OTL: Money
!!!RDF**harte: Chris Harte's syntax, used by MIREX
!!!RDF**harmony: **recip + pitch class of root + harmonic quality
!!!RDF**leadinstrument: original McGill primary instrumentation annotation
!!!RDF**phrase: newline = linebreak in original McGill transcription
!!!RDF**timestamp: McGill audio timestamp in seconds
!!!RDT: 2017/01/12/
!!!SampleActualRank: 13
!!!SampleID#: 0269
!!!SampleTargetRank: 12
